X:1797
T:Garden of Daisies, The
T:Gort Na Noininead
C:"collected by Hartnett"
S:1797 O'Neill's Music of Ireland
N::1st Setting
N:Tilde (~) used for trills
B:O'Neill's 1797
Z:Transcribed by Robert Thorpe (thorpe@skep.com)
Z:ABCMUS 1.0
M:C|
L:1/8
K:D
fg|a2 b2 g3/2b/a3/2g/|f2 a2 g3/2f/e3/2f/|~d-cd3/2e/ f3/2d/e3/2c/|dedc AGFG|
A3 B ABAG|FEFG ABcA|~d-cde f3/2d/e3/2c/|d2 d3/2d/ d2:|
(3ABc|d2 e2 fefg|a3 f d2 ga|b3 g a3 f|g3 e c2 d-e|
f3 e f2 a2|g2 f2 efec|dcde fdec|dedc A2 f-g|
a2 b2 g3/2b/ag|f2 a2 g3/2f/ef|~d-cde f3/2d/e3/2c/|dedc AGFG|
A3 B ABAG|FEFG ABcA|~d-cde fdec|d2 d3/2d/ d2||
(3ABc|d2 e2 f2 g2|a2 a3/2a/ a2 f-g|a2 b2 c'2 a2|g2 g3/2g/ g2 f-g|
a2 b2 a2 g2|e2 a2 g2 e2|~d-cde fdec|dedc A2 f-g|
a2 b2 a2 g2|e2 a2 g2 e2|~d-cde fdec|dedc AGFG|
A2 AB ABAG|F2 G2 ABcA|d2 de fdec|d2 d3/2d/ d2|]


